X: 11464
M: 3/4
L: 1/8
K: G
d2 |\
g2B2c2 | d2g2Bd | c2B2A2 | G4d2 |\
e2d2g2 | e2d2g2 | B2A2G2 | d4A2 |\
d2d2d2 | d2^c2A2 | f2f2f2 | f2e2f2 |
g3fe2 | a2g2f2 | e2A2^c2 | d4A2 |\
d2defe | d4A2 | f2fgag | f4f2 |\
g3fe2 | a2gfed | e2A2^c2 | d2z2 |]
d2 |\
g2B2c2 | d3e=f2 | e2g=fed | c4ee |\
d2f2g2 | d2f2g2 | edc2B2 | {B}A4d2 |\
g2B2c2 | d2g2Bd | c2B2A2 | G4dd |
e2d2g2 | e2d2g2 | d2cBAG | d4dB |\
g3fe2 | {e}d2cBAG | A2g2f2 | g2z2 |]



